src/pages/elements/images/this-is-too-comfortable-desktop.svg

<svg xmlns="http://www.w3.org/2000/svg" viewBox="0 0 928 176"><g fill="none" fill-rule="evenodd"><path fill="#FFF" d="M0 0h928v176H0z"/><path d="M95.6 70.072H79.616V115h-6.048V70.072H57.584v-5.328H95.6v5.328zm21.064 45.792c-9.936 0-16.776-7.632-16.776-19.44 0-11.808 6.84-19.44 16.776-19.44s16.776 7.632 16.776 19.44c0 11.808-6.84 19.44-16.776 19.44zm0-5.112c6.192 0 10.584-3.816 10.584-11.664V93.76c0-7.848-4.392-11.664-10.584-11.664-6.192 0-10.584 3.816-10.584 11.664v5.328c0 7.848 4.392 11.664 10.584 11.664zm44.32 5.112c-9.936 0-16.776-7.632-16.776-19.44 0-11.808 6.84-19.44 16.776-19.44s16.776 7.632 16.776 19.44c0 11.808-6.84 19.44-16.776 19.44zm0-5.112c6.192 0 10.584-3.816 10.584-11.664V93.76c0-7.848-4.392-11.664-10.584-11.664-6.192 0-10.584 3.816-10.584 11.664v5.328c0 7.848 4.392 11.664 10.584 11.664zm65.096 5.112c-10.44 0-16.56-7.56-16.56-19.44 0-11.88 6.12-19.44 16.56-19.44 7.344 0 11.736 3.6 13.896 8.712l-4.824 2.448c-1.368-3.816-4.536-6.048-9.072-6.048-6.84 0-10.368 4.68-10.368 11.16v6.336c0 6.48 3.528 11.16 10.368 11.16 4.68 0 8.064-2.232 10.08-6.48l4.176 2.808c-2.376 5.328-7.2 8.784-14.256 8.784zm40 0c-9.936 0-16.776-7.632-16.776-19.44 0-11.808 6.84-19.44 16.776-19.44s16.776 7.632 16.776 19.44c0 11.808-6.84 19.44-16.776 19.44zm0-5.112c6.192 0 10.584-3.816 10.584-11.664V93.76c0-7.848-4.392-11.664-10.584-11.664-6.192 0-10.584 3.816-10.584 11.664v5.328c0 7.848 4.392 11.664 10.584 11.664zM302.12 115h-5.76V77.848h5.76v6.048h.288c1.656-3.816 4.248-6.912 10.008-6.912 4.896 0 9.36 2.232 11.376 7.56h.144c1.368-4.032 4.968-7.56 11.304-7.56 7.56 0 12.096 5.184 12.096 14.184V115h-5.76V92.176c0-6.552-2.52-10.008-8.136-10.008-4.536 0-8.712 2.304-8.712 7.056V115h-5.76V92.176c0-6.624-2.52-10.008-7.992-10.008-4.536 0-8.856 2.304-8.856 7.056V115zm63.112 0V82.888h-6.048v-5.04h6.048V70.36c0-5.112 2.664-8.64 8.136-8.64h5.616v5.04h-7.992v11.088h7.992v5.04h-7.992V115h-5.76zm39.064.864c-9.936 0-16.776-7.632-16.776-19.44 0-11.808 6.84-19.44 16.776-19.44s16.776 7.632 16.776 19.44c0 11.808-6.84 19.44-16.776 19.44zm0-5.112c6.192 0 10.584-3.816 10.584-11.664V93.76c0-7.848-4.392-11.664-10.584-11.664-6.192 0-10.584 3.816-10.584 11.664v5.328c0 7.848 4.392 11.664 10.584 11.664zm36.04 4.248h-5.76V77.848h5.76v6.84h.36c1.296-3.528 4.68-6.84 10.728-6.84h2.232v5.76h-3.384c-6.192 0-9.936 2.664-9.936 6.192V115zm40.36 0h-7.2c-3.96 0-6.12-2.52-6.12-6.12V82.888h-6.12v-5.04h3.456c2.448 0 3.24-.864 3.24-3.384v-6.912h5.184v10.296h8.136v5.04h-8.136v27.072h7.56V115zm44.104 0h-3.24c-4.248 0-5.976-2.592-6.408-6.048h-.36c-1.584 4.536-5.544 6.912-10.728 6.912-7.848 0-12.456-4.32-12.456-11.232 0-6.984 5.04-10.872 15.84-10.872h7.344v-3.672c0-5.256-2.88-8.136-8.784-8.136-4.464 0-7.416 2.16-9.432 5.544l-3.456-3.24c2.016-3.96 6.48-7.272 13.176-7.272 8.928 0 14.256 4.68 14.256 12.528v20.448h4.248V115zm-19.8-4.032c5.688 0 9.792-2.952 9.792-6.768v-6.12h-7.632c-6.552 0-9.504 2.016-9.504 5.616v1.512c0 3.672 2.88 5.76 7.344 5.76zM537.008 115V61.72h5.76v22.176h.288c1.944-4.68 5.76-6.912 10.872-6.912 9.288 0 15.12 7.56 15.12 19.44 0 11.88-5.832 19.44-15.12 19.44-5.112 0-8.64-2.304-10.872-6.912h-.288V115h-5.76zm15.336-4.32c6.48 0 10.512-4.464 10.512-11.088v-6.336c0-6.624-4.032-11.088-10.512-11.088-5.256 0-9.576 3.024-9.576 7.128v13.824c0 4.824 4.32 7.56 9.576 7.56zM594 115h-5.112c-3.96 0-6.12-2.52-6.12-5.976V61.72h5.76v48.24H594V115zm26.32.864c-10.08 0-16.704-7.632-16.704-19.44 0-11.808 6.624-19.44 16.704-19.44 9.936 0 16.056 7.632 16.056 18.144v2.736h-26.712v1.728c0 6.408 4.104 11.232 11.016 11.232 4.68 0 8.28-2.304 10.224-6.408l4.104 2.952c-2.376 5.04-7.704 8.496-14.688 8.496zm0-34.056c-6.264 0-10.656 4.752-10.656 11.232v.504h20.52v-.792c0-6.552-3.96-10.944-9.864-10.944zm31.792 34.056c-3.024 0-4.392-1.728-4.392-4.176v-.936c0-2.448 1.368-4.176 4.392-4.176s4.392 1.728 4.392 4.176v.936c0 2.448-1.368 4.176-4.392 4.176z" fill="#3D3D3D"/></g></svg>

<?xml version="1.0" encoding="UTF-8"?>
<svg width="928px" height="176px" viewBox="0 0 928 176" version="1.1" xmlns="http://www.w3.org/2000/svg" xmlns:xlink="http://www.w3.org/1999/xlink">
    <!-- Generator: Sketch 51.2 (57519) - http://www.bohemiancoding.com/sketch -->
    <title>Group</title>
    <desc>Created with Sketch.</desc>
    <defs></defs>
    <g id="Page-1" stroke="none" stroke-width="1" fill="none" fill-rule="evenodd">
        <g id="Type-Basics" transform="translate(-352.000000, -662.000000)">
            <g id="Group" transform="translate(352.000000, 662.000000)">
                <rect id="Rectangle-16-Copy-169" fill="#FFFFFF" x="0" y="0" width="928" height="176"></rect>
                <path d="M95.6,70.072 L79.616,70.072 L79.616,115 L73.568,115 L73.568,70.072 L57.584,70.072 L57.584,64.744 L95.6,64.744 L95.6,70.072 Z M116.664,115.864 C106.728,115.864 99.888,108.232 99.888,96.424 C99.888,84.616 106.728,76.984 116.664,76.984 C126.6,76.984 133.44,84.616 133.44,96.424 C133.44,108.232 126.6,115.864 116.664,115.864 Z M116.664,110.752 C122.856,110.752 127.248,106.936 127.248,99.088 L127.248,93.76 C127.248,85.912 122.856,82.096 116.664,82.096 C110.472,82.096 106.08,85.912 106.08,93.76 L106.08,99.088 C106.08,106.936 110.472,110.752 116.664,110.752 Z M160.984,115.864 C151.048,115.864 144.208,108.232 144.208,96.424 C144.208,84.616 151.048,76.984 160.984,76.984 C170.92,76.984 177.76,84.616 177.76,96.424 C177.76,108.232 170.92,115.864 160.984,115.864 Z M160.984,110.752 C167.176,110.752 171.568,106.936 171.568,99.088 L171.568,93.76 C171.568,85.912 167.176,82.096 160.984,82.096 C154.792,82.096 150.4,85.912 150.4,93.76 L150.4,99.088 C150.4,106.936 154.792,110.752 160.984,110.752 Z M226.08,115.864 C215.64,115.864 209.52,108.304 209.52,96.424 C209.52,84.544 215.64,76.984 226.08,76.984 C233.424,76.984 237.816,80.584 239.976,85.696 L235.152,88.144 C233.784,84.328 230.616,82.096 226.08,82.096 C219.24,82.096 215.712,86.776 215.712,93.256 L215.712,99.592 C215.712,106.072 219.24,110.752 226.08,110.752 C230.76,110.752 234.144,108.52 236.16,104.272 L240.336,107.08 C237.96,112.408 233.136,115.864 226.08,115.864 Z M266.08,115.864 C256.144,115.864 249.304,108.232 249.304,96.424 C249.304,84.616 256.144,76.984 266.08,76.984 C276.016,76.984 282.856,84.616 282.856,96.424 C282.856,108.232 276.016,115.864 266.08,115.864 Z M266.08,110.752 C272.272,110.752 276.664,106.936 276.664,99.088 L276.664,93.76 C276.664,85.912 272.272,82.096 266.08,82.096 C259.888,82.096 255.496,85.912 255.496,93.76 L255.496,99.088 C255.496,106.936 259.888,110.752 266.08,110.752 Z M302.12,115 L296.36,115 L296.36,77.848 L302.12,77.848 L302.12,83.896 L302.408,83.896 C304.064,80.08 306.656,76.984 312.416,76.984 C317.312,76.984 321.776,79.216 323.792,84.544 L323.936,84.544 C325.304,80.512 328.904,76.984 335.24,76.984 C342.8,76.984 347.336,82.168 347.336,91.168 L347.336,115 L341.576,115 L341.576,92.176 C341.576,85.624 339.056,82.168 333.44,82.168 C328.904,82.168 324.728,84.472 324.728,89.224 L324.728,115 L318.968,115 L318.968,92.176 C318.968,85.552 316.448,82.168 310.976,82.168 C306.44,82.168 302.12,84.472 302.12,89.224 L302.12,115 Z M365.232,115 L365.232,82.888 L359.184,82.888 L359.184,77.848 L365.232,77.848 L365.232,70.36 C365.232,65.248 367.896,61.72 373.368,61.72 L378.984,61.72 L378.984,66.76 L370.992,66.76 L370.992,77.848 L378.984,77.848 L378.984,82.888 L370.992,82.888 L370.992,115 L365.232,115 Z M404.296,115.864 C394.36,115.864 387.52,108.232 387.52,96.424 C387.52,84.616 394.36,76.984 404.296,76.984 C414.232,76.984 421.072,84.616 421.072,96.424 C421.072,108.232 414.232,115.864 404.296,115.864 Z M404.296,110.752 C410.488,110.752 414.88,106.936 414.88,99.088 L414.88,93.76 C414.88,85.912 410.488,82.096 404.296,82.096 C398.104,82.096 393.712,85.912 393.712,93.76 L393.712,99.088 C393.712,106.936 398.104,110.752 404.296,110.752 Z M440.336,115 L434.576,115 L434.576,77.848 L440.336,77.848 L440.336,84.688 L440.696,84.688 C441.992,81.16 445.376,77.848 451.424,77.848 L453.656,77.848 L453.656,83.608 L450.272,83.608 C444.08,83.608 440.336,86.272 440.336,89.8 L440.336,115 Z M480.696,115 L473.496,115 C469.536,115 467.376,112.48 467.376,108.88 L467.376,82.888 L461.256,82.888 L461.256,77.848 L464.712,77.848 C467.16,77.848 467.952,76.984 467.952,74.464 L467.952,67.552 L473.136,67.552 L473.136,77.848 L481.272,77.848 L481.272,82.888 L473.136,82.888 L473.136,109.96 L480.696,109.96 L480.696,115 Z M524.8,115 L521.56,115 C517.312,115 515.584,112.408 515.152,108.952 L514.792,108.952 C513.208,113.488 509.248,115.864 504.064,115.864 C496.216,115.864 491.608,111.544 491.608,104.632 C491.608,97.648 496.648,93.76 507.448,93.76 L514.792,93.76 L514.792,90.088 C514.792,84.832 511.912,81.952 506.008,81.952 C501.544,81.952 498.592,84.112 496.576,87.496 L493.12,84.256 C495.136,80.296 499.6,76.984 506.296,76.984 C515.224,76.984 520.552,81.664 520.552,89.512 L520.552,109.96 L524.8,109.96 L524.8,115 Z M505,110.968 C510.688,110.968 514.792,108.016 514.792,104.2 L514.792,98.08 L507.16,98.08 C500.608,98.08 497.656,100.096 497.656,103.696 L497.656,105.208 C497.656,108.88 500.536,110.968 505,110.968 Z M537.008,115 L537.008,61.72 L542.768,61.72 L542.768,83.896 L543.056,83.896 C545,79.216 548.816,76.984 553.928,76.984 C563.216,76.984 569.048,84.544 569.048,96.424 C569.048,108.304 563.216,115.864 553.928,115.864 C548.816,115.864 545.288,113.56 543.056,108.952 L542.768,108.952 L542.768,115 L537.008,115 Z M552.344,110.68 C558.824,110.68 562.856,106.216 562.856,99.592 L562.856,93.256 C562.856,86.632 558.824,82.168 552.344,82.168 C547.088,82.168 542.768,85.192 542.768,89.296 L542.768,103.12 C542.768,107.944 547.088,110.68 552.344,110.68 Z M594,115 L588.888,115 C584.928,115 582.768,112.48 582.768,109.024 L582.768,61.72 L588.528,61.72 L588.528,109.96 L594,109.96 L594,115 Z M620.32,115.864 C610.24,115.864 603.616,108.232 603.616,96.424 C603.616,84.616 610.24,76.984 620.32,76.984 C630.256,76.984 636.376,84.616 636.376,95.128 L636.376,97.864 L609.664,97.864 L609.664,99.592 C609.664,106 613.768,110.824 620.68,110.824 C625.36,110.824 628.96,108.52 630.904,104.416 L635.008,107.368 C632.632,112.408 627.304,115.864 620.32,115.864 Z M620.32,81.808 C614.056,81.808 609.664,86.56 609.664,93.04 L609.664,93.544 L630.184,93.544 L630.184,92.752 C630.184,86.2 626.224,81.808 620.32,81.808 Z M652.112,115.864 C649.088,115.864 647.72,114.136 647.72,111.688 L647.72,110.752 C647.72,108.304 649.088,106.576 652.112,106.576 C655.136,106.576 656.504,108.304 656.504,110.752 L656.504,111.688 C656.504,114.136 655.136,115.864 652.112,115.864 Z" id="Too-comfortable." fill="#3D3D3D"></path>
            </g>
        </g>
    </g>
</svg>
